X:1
T:Carol, Carol Christians
T:R. F. Smith, 1894
T:Carol, Carol Christians
T:Public Domain
T:Public Domain
C:R. F. Smith, 1894
Z:Public Domain
%%score ( 1 2 ) ( 3 4 )
L:1/8
M:4/4
K:Eb
V:1 treble 
V:2 treble 
V:3 bass 
V:4 bass 
V:1
 (GF)(GA) (FE)(FA) | ([GB]2 [Ge]2) (E2 G2) | (cB)(AG) [DF]2 (GA) | [EG]8 | (GF)(GA) (FE)(FG) | %5
w: Car- * ol, * car- * ol, *|joy- * ful- *|Car- * ol * for the *|Christ’s|na- * ti- * vi- * ty; *|
 ([FB]2 [Ef]2) [Df]2 [Dd]2 | (ed)(cB) (FE)(DE) | [DB]6 B2 | (cB)(cd) [Ee]2 [EB]2 | %9
w: some * Christ- mas,|For * all * good * Christ- *|car- ol,|Christ- * ians, * For Christ-|
 (AGAB) [EG]2 E2 | ([DF]E)([DF][EG]) [FA]2 [EG]2 | ([Ec]4 [Fd]4) || %12
w: come * * * a- gain.|ol. * * * * *||
"^Refrain" ([Ee][Ad])([Ge][Ad]) ([Ge][Ad])([Ge][Ad]) | ([Ge]2 [EG]2) [EB]2 [EB]2 | %14
w: ||
 (cB)([Ec][Ad]) [Ge]2 [Fc]2 | (f6 e2) | edcB Bcdf | [Ge]8 |] %18
w: ||||
V:2
 E2 E2 B2 B2 | x4 B4 | E2 E2 x D2 x | x8 | E2 E2 B2 B2 | x8 | G2 G2 A2 A2 | x8 | D2 F2 x4 | %9
w: Christ- ians, Car- ol|ly;|com- ing of||And pray a glad-||ian men, Car- ol,||mas has|
 E2 D2 x E2 x | x E x6 | x8 || x8 | x8 | E2 x6 | F8 | F2 A2 A4 | x8 |] %18
w: Car- ol, car-|||||||||
V:3
 (B,A,)(B,C) (DC)(DF) | (E,D,E,F,) (G,2 E,2) | A,2 [F,A,]2 (B,A,)(G,F,) | (E,2 G,2 B,4) | %4
 [E,B,]2 [E,B,]2 (D,C,)(D,E,) | ([D,B,]2 [C,=A,]2) [B,,B,]2 [B,,B,]2 | [E,B,]2 (ED) [F,C]2 [F,C]2 | %7
 (B,4 G,2) [B,,G,]2 | [B,,A,]2 [B,,A,]2 (G,F,)G,A, | [B,,B,]4 [E,B,]2 [G,B,]2 | %10
 (A,G,)(F,E,) [D,B,]2 [E,B,]2 | ([A,C]4 [A,B,]4) || (G,F,)(B,_C) (B,C)(B,C) | %13
 ([E,B,]2 [E,B,]2) [G,B,]2 [G,B,]2 | (A,[G,B,])(A,[F,B,]) [G,B,]2 [A,C]2 | [=A,C]8 | %16
 B,2 [B,F]2 DEFD | [E,E]8 |] %18
V:4
 E,2 E,2 E,2 E,2 | E2 B,2 B,4 | A,2 B,,2 B,,2 x2 | E,8 | x4 B,2 B,2 | x8 | x2 E,2 x4 | B,,6 x2 | %8
 x4 B,,2 B,,2 | x8 | B,2 B,2 x4 | x8 || B,2 E,2 E,2 E,2 | x8 | A,A, x6 | x8 | B,2 B,4 x2 | x8 |] %18

